!!!COM: Jules Massenet
!!!CNT: Francais
!!!TXO: Francais
!!!OTL: Adieu (Complainte)
!!!LYR: Armand Silvestre
!!!OPR: Poe^me d'Avril
!!!ONM: No. 8
!!!ENC: Jacob Pegg
!!!YOR: Romantic French Song 1830-1870 - David Tunley, ed.,
!!!YOR: New York: Garland Publishing, Inc., 1995, Vol. 6
!!!ODT: 1866/
!!NB: Vocal melody and text only encoded.
!!NB: First instance of melodic material only encoded.
**kern	**silbe
*clef G2	*
*k[]	*
*M12/8	*
!!created: 12/14/03 0:17
!!proofed and posted: 12/14/03 12:53
!!edit time: 58 min.
=1	=1
1.r	.
=2	=2
8r	.
8.r;	.
{16ee	{Je
4.ee}	pars!}
8r	.
8r	.
{8cc	{A-
8cc	-dieu,
8b	ma
8a	che\re
=3	=3
4g#	a\-
8a}	-me,}
{4b	{Gar-
8cc	-de
(4g#	bien
8a)	|
(8b	mon
8b	sou-
8cc)	-ve-
=4	=4
[2.cc	-nir!
4cc;]}	|}
8r	.
4r	.
8r;	.
=5	=5
1.r	.
=6	=6
4r	.
8r	.
{8cc	{Quoi!
8r	.
8cc	Si
4cc	to^t
8b	par-
4b	-tir,
8a	ma-
=7	=7
2.a	-da-
4.g#}	-me;}
4r	.
8r	.
=8	=8
4r	.
8r	.
{4cc	{Ne
8cc	de-
4cc	-vez~
8b	~vous
4b	re-
8a	-ve-
=9	=9
(2.a	-nir?
4.g#)}	|}
4r	.
8r	.
=10	=10
{4.ee	{Si,
8r	.
8r	.
8a	je
4a	re-
8a	-vien-
ccq	-drai
4b-	|
8a	peut~
=11	=11
2.ee	~e^-
4.a}	-tre;}
4r	.
8r	.
=12	=12
{4.dd	{Si,
8r	.
8r	.
8g	bien
4g	su^r,
8g	je
bq	re-
4a-	|
8g	-vien-
=13	=13
2.dd}	-drai}
4r	.
8r	.
{4dd	{Va
8cc	m'at-
=14	=14
4cc	-ten-
8bn	-dre a\
4an	la
8g#	fe-
4a	-ne^-
8a}	-tre;}
{4b	{De
8dd	plus
=15	=15
(8cc	loin
8b)	|
8a	te
8.ee	re-
8.g#	-ver-
4.a}	-rai.}
4r	.
8r	.
=16	=16
1.r	.
=17	=17
4r	.
8r	.
{4cc	{J'at-
8cc	-ten-
4cc	-dis
8cc	a\
4cc	la
8ee	fe-
=18	=18
(4.dd	-ne^-
4.cc	|
4.b)}	-tre}
{4b	{Le
8b	re-
=19	=19
4b	-tour
8b	tant
(8b	es-
8cc)	|
8dd	-pe/-
[4.cc	-re/,
4cc]}	|}
8r	.
=20	=20
4r	.
8r	.
{8cc	{Mais,
8r	.
8cc	ni
8.cc	bien
8.cc	su^r,
4cc	ni
8ee	peut~
=21	=21
(4.dd	~e^-
4.cc	|
[4.b	-tre,
4b])}	|}
8r	.
=22	=22
4r	.
8r	.
{4cc	{Ni
8ee	ja-
(8.aa	-mais
8.ee)	la
(8.ee	re-
8.cc)	-ver-
=23	=23
2.a}	-rai!}
4r	.
8r	.
{4.a	{Bien
=24	=24
4.b	fol
4.b	qui
4.cc	croit
(8cc	quand
8dd)	|
8ee	une
=25	=25
(4ee	da-
8dd)	|
4cc}	-me}
{8b	{Lui
8a	ju-
8g#	-re
8a	de
(8.b	re-
8.cc)	-ve-
=26	=26
[2.a	-nir.
4a]}	|}
8r	.
4r	.
8r	.
=27	=27
2.r	.
4r	.
8r	.
8r	.
8.r	.
{16a	{Je
=28	=28
[1.a	meurs!
=29	=29
4a]}	|}
8r	.
4r	.
8r	.
4r	.
8r	.
8r	.
8.r	.
{16e	{A-
=30	=30
2.e;}	dieu!}
8r	.
8r	.
{8cc	{A-
8cc	-dieu,
8b	ma
8a	che\re
=31	=31
4g#	a^-
8a}	-me,}
{4b	{J'ai
8cc	gar-
(4g#	-de/
8a)	|
(8b	ton
8b	sou-
8cc)	-ve-
=32	=32
[2.cc	-nir!
4.cc;]}	|}
4r	.
8r;	.
*-	*-
